X: 11076
T: The PRIMROSE POLKA
C: Bob McQuillen 6 Jan 2001
B: Bob's Note Book 11 #76
R: polka, reel
Z: 2020 John Chambers <jc:trillian.mit.edu>
M: C	% Actually, no time signature was printed
L: 1/8
K: G	% and D
Bd \
| g2dB cedc | B2G2 G2cB | A2FE D2Bd | e2dB d2ef |
| g2dB cedc | B2GB cBAG | FGAB cAFA | G2B2 G2  :| [K:D]
|: FG \
| A2AB AFGA | B2G2 G2ef | gfed ceae | g2fg fedB |
| AFAB A2FA | BGBd g2fg | afdf Aceg | f2d2 d2  :|
%%begintext align
%% You've already met my
%% good Monday-Night-in-Nelson-Caller-Dancer-friend (that's
%% a noun and it's all one word) Don Primrose in this book,
%% but what I didn't tell you before is that he's nuts about polkas!
%% He'd walk a mile (2 miles?) to dance a polka. Harvey Tolman's
%% been playing this one for Don lately, and it's fun watching him
%% go. Especially when he's dancing with daughter Shannon.
%% Now _there's_ a wonderful sight to see!!
%%endtext

%%sep 1 1 500

%%sep 1 1 500

